packages/bezier-icons/icons/page-zip.svg

<svg width="24" height="24" viewBox="0 0 24 24" fill="none" xmlns="http://www.w3.org/2000/svg">
<path d="M13 12V14H11V12H13Z" fill="#313234"/>
<path d="M13 18V16H11V18H13Z" fill="#313234"/>
<path fill-rule="evenodd" clip-rule="evenodd" d="M7 2C5.34315 2 4 3.34315 4 5V19C4 20.6569 5.34315 22 7 22H17C18.6569 22 20 20.6569 20 19V10C20 9.73478 19.8946 9.48043 19.7071 9.29289L12.7071 2.29289C12.5196 2.10536 12.2652 2 12 2H7ZM6 5C6 4.44772 6.44772 4 7 4H11V10H13V5.41421L18 10.4142V19C18 19.5523 17.5523 20 17 20H7C6.44772 20 6 19.5523 6 19V5Z" fill="#313234"/>
</svg>

<svg xmlns="http://www.w3.org/2000/svg" width="24" height="24" fill="none" viewBox="0 0 24 24"><path fill="#313234" d="M13 12v2h-2v-2zM13 18v-2h-2v2z"/><path fill="#313234" fill-rule="evenodd" d="M7 2a3 3 0 0 0-3 3v14a3 3 0 0 0 3 3h10a3 3 0 0 0 3-3v-9a1 1 0 0 0-.293-.707l-7-7A1 1 0 0 0 12 2zM6 5a1 1 0 0 1 1-1h4v6h2V5.414l5 5V19a1 1 0 0 1-1 1H7a1 1 0 0 1-1-1z" clip-rule="evenodd"/></svg>
